!!!ONB: MCCC : ILB0166_01 : Extracted Monophonic Melody
!!!COM: Beethoven, Ludwig van
!!!OPR: Piano Sonata No.5
!!!OMV: 1
!!!SCT: Op.10 No.1
!!!ODT: 1795///
**kern
*thru
*staff1
*Ipiano
*>A
*clefG2
*k[b-e-a-]
*c:
*M3/4
*MM160
=1
4.cc
16r
16g
8.ee-
16cc
=2
8.gg
16ee-
8.ccc
16gg
4eee-
=3
4eee-
4r
4cc
=4
2cc
4b
=5
4.b
16r
16b
8.ff
16dd
=6
8.bb
16ff
8.ddd
16bb
4fff
=7
4fff
4r
4dd
=8
2dd
4cc
=9
4.gg
8ff
4ee-
=10
2dd
4cc
=11
4.gg
8ff
4ee-
=12
2dd
4cc
=13
4.gg
8ff
4ee-[
=14
4ee-]
4dd
4cc[
=15
4cc]
4b
4a-[
=16
4a-]
4g
4r
=17
4r
12B
12d
12f
12a-
12g
12f
=18
4e-
4r
4r
=19
4r
12F
12A-
12d
12f
12e-
12d
=20
4c
4r
4r
=21
4r
12G
12B
12d
12f
12d
12B
=22
4.c
16r
16c
8.g
16e-
=23
8.cc
16g
8.ee-
16cc
4gg
=24
4gg
8.r
16B
8.g
16d
=25
8.b
16g
8.dd
16b
4gg
=26
4gg
8.r
16e-
8.g
16e-
=27
8.cc
16g
8.ee-
16cc
8.gg
16ee-
=28
4dd
4fff
4r
=29
4b
4ddd
4r
=30
4cc
4ccc
4r
=31
2.r
=32
2.r
=33
4r
2g
=34
2ee-
[4ee-
=35
4ee-]
4ff
4dd-[
=36
4dd-]
4b
4cc
=37
4r
4ee
4ccc
=38
2ccc
4ccc[
=39
4ccc]
4ddd-
4bb-[
=40
4bb-]
4gg
4aa-
=41
4r
4cc
4aa-
=42
2aa-
4aa-[
=43
4aa-]
4bb-
4gg-[
=44
4gg-]
4ee
4ff[
=45
4ff]
4gg-
[4ee-
=46
4ee-]
4ee-
4dd[
=47
4dd]
4ee-
4g-
=48
4f
4r
4r
=49
4r
4cc
4cc
=50
4cc
4b-
4r
=51
4r
4a-
4a-
=52
4a-
4g
4r
=53
8r
8cc
8b
8cc
8dd
8cc
=54
8r
8b-
8a
8b-
8cc
8b-
=55
8r
8a-
8g
8a-
8b-
8a-
=56
[2.g
=57
4.g]
8b-
4ee-
=58
2.ee-
=59
4dd
4r
4r
=60
[2.b-
=61
4.b-]
8ff
4aa-
=62
2.aa-
=63
4gg
4r
4r
=64
8g
8a-
8b-
8cc
8dd
8ee-
=65
8ff
8gg
8aa-
8bb-
8ccc
8ddd
=66
2.eee-
=67
4ddd
4r
4r
=68
8B-
8c
8d
8e-
8f
8g
=69
8a-
8b-
8cc
8dd
8ee-
8ff
=70
2.gg
=71
2eee-
4G
=72
2.A-
=73
2.A
=74
2.B-
=75
2.A-
=76
8G
8B-
8e-
8B-
8e-
8g
=77
8b-
8g
8b-
8ee-
8gg
8bb-
=78
4eee-
4r
[4e-
=79
2e-]
4G
=80
2A-
4e-
=81
2A
4e-
=82
8B-
8e-
8d
8e-
8B
8e-
=83
8c
8e-
8d
8e-
8A
8e-
=84
8B-
8e-
8d-
8e-
8B
8e-
=85
8c
8e-
8d
8e-
8A
8e-
=86
4B-
8.r
16e-
8.b-
16g
=87
4ee-
8.r
16e-
8.a
16f#
=88
4ee-
8.r
16e-
8.b-
16g
=89
4ee-
8.r
16cc
8.ff#
16ee-
=90
4.gg
8ee-
8ee-
8b-
=91
8b-
8g
8g
8e-
8e-
8B-
=92
8B-
8G
8G
8E-
8E-
8BB-
=93
4r
4r
4d
=94
4e-
4r
4r
=95
4r
4b-
4b-
=96
4cc
4b-
4r
=97
4r
4dd
4dd
=98
4ff
4ee-
4r
=99
4r
4b-
4b-
=100
4cc
4b-
4r
=101
4r
4d
4d
=102
4f
4e-
4r
=103
4r
4d
4d
=104
2.f
=105
4e-
4r
4r
=106
*>A
*M3/4
4.cc
16r
16g
8.ee-
16cc
=107
8.gg
16ee-
8.ccc
16gg
4eee-
=108
4eee-
4r
4cc
=109
2cc
4b
=110
4.b
16r
16b
8.ff
16dd
=111
8.bb
16ff
8.ddd
16bb
4fff
=112
4fff
4r
4dd
=113
2dd
4cc
=114
4.gg
8ff
4ee-
=115
2dd
4cc
=116
4.gg
8ff
4ee-
=117
2dd
4cc
=118
4.gg
8ff
4ee-[
=119
4ee-]
4dd
4cc[
=120
4cc]
4b
4a-[
=121
4a-]
4g
4r
=122
4r
12B
12d
12f
12a-
12g
12f
=123
4e-
4r
4r
=124
4r
12F
12A-
12d
12f
12e-
12d
=125
4c
4r
4r
=126
4r
12G
12B
12d
12f
12d
12B
=127
4.c
16r
16c
8.g
16e-
=128
8.cc
16g
8.ee-
16cc
4gg
=129
4gg
8.r
16B
8.g
16d
=130
8.b
16g
8.dd
16b
4gg
=131
4gg
8.r
16e-
8.g
16e-
=132
8.cc
16g
8.ee-
16cc
8.gg
16ee-
=133
4dd
4fff
4r
=134
4b
4ddd
4r
=135
4cc
4ccc
4r
=136
2.r
=137
2.r
=138
4r
2g
=139
2ee-
[4ee-
=140
4ee-]
4ff
4dd-[
=141
4dd-]
4b
4cc
=142
4r
4ee
4ccc
=143
2ccc
4ccc[
=144
4ccc]
4ddd-
4bb-[
=145
4bb-]
4gg
4aa-
=146
4r
4cc
4aa-
=147
2aa-
4aa-[
=148
4aa-]
4bb-
4gg-[
=149
4gg-]
4ee
4ff[
=150
4ff]
4gg-
[4ee-
=151
4ee-]
4ee-
4dd[
=152
4dd]
4ee-
4g-
=153
4f
4r
4r
=154
4r
4cc
4cc
=155
4cc
4b-
4r
=156
4r
4a-
4a-
=157
4a-
4g
4r
=158
8r
8cc
8b
8cc
8dd
8cc
=159
8r
8b-
8a
8b-
8cc
8b-
=160
8r
8a-
8g
8a-
8b-
8a-
=161
[2.g
=162
4.g]
8b-
4ee-
=163
2.ee-
=164
4dd
4r
4r
=165
[2.b-
=166
4.b-]
8ff
4aa-
=167
2.aa-
=168
4gg
4r
4r
=169
8g
8a-
8b-
8cc
8dd
8ee-
=170
8ff
8gg
8aa-
8bb-
8ccc
8ddd
=171
2.eee-
=172
4ddd
4r
4r
=173
8B-
8c
8d
8e-
8f
8g
=174
8a-
8b-
8cc
8dd
8ee-
8ff
=175
2.gg
=176
2eee-
4G
=177
2.A-
=178
2.A
=179
2.B-
=180
2.A-
=181
8G
8B-
8e-
8B-
8e-
8g
=182
8b-
8g
8b-
8ee-
8gg
8bb-
=183
4eee-
4r
[4e-
=184
2e-]
4G
=185
2A-
4e-
=186
2A
4e-
=187
8B-
8e-
8d
8e-
8B
8e-
=188
8c
8e-
8d
8e-
8A
8e-
=189
8B-
8e-
8d-
8e-
8B
8e-
=190
8c
8e-
8d
8e-
8A
8e-
=191
4B-
8.r
16e-
8.b-
16g
=192
4ee-
8.r
16e-
8.a
16f#
=193
4ee-
8.r
16e-
8.b-
16g
=194
4ee-
8.r
16cc
8.ff#
16ee-
=195
4.gg
8ee-
8ee-
8b-
=196
8b-
8g
8g
8e-
8e-
8B-
=197
8B-
8G
8G
8E-
8E-
8BB-
=198
4r
4r
4d
=199
4e-
4r
4r
=200
4r
4b-
4b-
=201
4cc
4b-
4r
=202
4r
4dd
4dd
=203
4ff
4ee-
4r
=204
4r
4b-
4b-
=205
4cc
4b-
4r
=206
4r
4d
4d
=207
4f
4e-
4r
=208
4r
4d
4d
=209
2.f
=210
4e-
4r
4r
=211
*>B
4.cc
16r
16g
8.ee
16cc
=212
8.gg
16ee
8.ccc
16gg
4eee
=213
4eee
4r
4ee
=214
2ee
4dd
=215
4.dd
16r
16b
8.ff
16dd
=216
8.bb
16ff
8.ddd
16bb
4fff
=217
4fff
4r
4ff
=218
2ff
4ee
=219
4.ee
16r
16b-
8.ee
16dd-
=220
8.gg
16ee
8.bb-
16gg
4ddd-
=221
4g
4bb-
4r
=222
4e
4gg
4r
=223
2.ff
=224
2ccc
4ccc
=225
4ccc
4bb
4ddd-
=226
4ccc
4bb-
4gg
=227
2ee
4gg
=228
2ccc
4gg
=229
2.bb-
=230
4aa-
4r
4aa
=231
2.bb-
=232
2fff
4fff
=233
4fff
4eee
4ggg-
=234
4fff
4eee-
4ccc
=235
2aa
4ccc
=236
2fff
4ccc
=237
2.eee-
=238
4ddd-
4r
4dd-
=239
2cc
4ee-
=240
2aa-
4ee-
=241
4ff
4ee
4gg-
=242
4ff
4ee-
4cc
=243
4aa-
4gg
4bb-
=244
4aa-
4gg-
4ee-
=245
4ff
4ee
4gg-
=246
4ff
4ee-
4cc
=247
2.dd-
=248
2bb-
4bb-
=249
[2.bb-
=250
2bb-]
4b-
=251
2.a-
=252
2aa-
4aa-
=253
[2.gg
=254
2gg]
4f
=255
4e-
4r
4r
=256
2ccc
4ccc
=257
2.ccc
=258
2fff
4fff
=259
[2.fff
=260
2fff]
4ff
=261
2ee-
4ee-[
=262
4ee-]
4dd
4cc
=263
4b
4r
4gg
=264
4ff
4r
4ee-
=265
4dd
4r
4cc
=266
4b
4r
4a-
=267
4g
4r
4gg
=268
4ff
4r
4ee-
=269
4dd
4r
4cc
=270
4b
4r
4a-
=271
4g
4r
4f
=272
4e-
4r
4d
=273
4.c
16r
16g
8.ee-
16cc
=274
8.gg
16ee-
8.ccc
16gg
4eee-
=275
4eee-
4r
4cc
=276
2cc
4b
=277
4.b
16r
16b
8.ff
16dd
=278
8.bb
16ff
8.ddd
16bb
4fff
=279
4fff
4r
4dd
=280
2dd
4cc
=281
4.gg
8ff
4ee-
=282
2dd
4cc
=283
4.gg
8ff
4ee-
=284
2dd
4cc
=285
4.gg
8ff
4ee-[
=286
4ee-]
4dd
4cc[
=287
4cc]
4b
4a-[
=288
4a-]
4g
4r
=289
4r
12B
12d
12f
12a-
12g
12f
=290
4e-
4r
4r
=291
4r
12F
12A-
12d
12f
12e-
12d
=292
4c
4r
4r
=293
4r
12G
12B
12d
12f
12d
12B
=294
4c
4r
4r
=295
2.r
=296
2.r
=297
4r
4f
4dd-
=298
2dd-
[4dd-
=299
4dd-]
4ee-
4cc-[
=300
4cc-]
4a
4b-
=301
4r
4ff
4ddd-
=302
2ddd-
[4ddd-
=303
4ddd-]
4eee-
4ccc-[
=304
4ccc-]
4aa
4bb-
=305
4r
2dd
=306
2bb-
4bb-[
=307
4bb-]
4ccc-
4aa-[
=308
4aa-]
4ff
4gg-[
=309
4gg-]
4aa-
4ff[
=310
4ff]
4ff
4ee[
=311
4ee]
4ff
4a-
=312
4g
4r
4r
=313
4r
4dd-
4dd-
=314
4dd-
4cc
4r
=315
4r
4b-
4b-
=316
4b-
4a
4r
=317
8r
8dd
8cc#
8dd
8ee
8dd
=318
8r
8cc
8b
8cc
8dd
8cc
=319
8r
8b-
8a
8b-
8cc
8b-
=320
[2.a
=321
4.a]
8cc
4ff
=322
2.ff
=323
4ee
4r
4r
=324
2.cc
=325
4.cc
8gg
4bb-
=326
2.bb-
=327
4aa
4r
4r
=328
8a
8b-
8cc
8dd
8ee
8ff
=329
8gg
8aa
8bb-
8ccc
8ddd
8eee
=330
2.fff
=331
4eee
4r
4r
=332
8c
8d
8e
8f
8g
8a
=333
8b-
8cc
8dd
8ee
8ff
8gg
=334
[2.aa-
=335
4aa-]
4gg
4ff
=336
2.ee-
=337
4gg
4ff
4dd
=338
[2.ee-
=339
4.ee-]
8gg
4ccc
=340
2.ccc
=341
4bb
4r
4r
=342
[2.gg
=343
4.gg]
8ddd
4fff
=344
2.fff
=345
4eee-
4r
4r
=346
8e-
8g
8cc
8g
8cc
8ee-
=347
8cc
8ee-
8gg
8ee-
8gg
8ccc
=348
2.ccc
=349
4bb
4r
4r
=350
8G
8B
8d
8B
8d
8g
=351
8d
8g
8b
8g
8b
8dd
=352
4ee-
4r
[4ccc
=353
2ccc]
4E
=354
2.F
=355
2.F#
=356
2.G
=357
2.F
=358
8E-
8G
8c
8G
8c
8e-
=359
8g
8e-
8g
8cc
8ee-
8gg
=360
4ccc
4r
[4c
=361
2c]
4E
=362
2F
4c
=363
2F#
4c
=364
8G
8c
8B
8c
8G
8c
=365
8A-
8c
8B
8c
8F#
8c
=366
8G
8c
8B
8c
8E
8c
=367
8F
8c
8A-
8c
8F#
8c
=368
4G
8.r
16g
8.ee-
16cc
=369
4ff#
8.r
16f#
8.ee-
16cc
=370
4gg
8.r
16g
8.ee-
16cc
=371
4aa
8.r
16a
8.ee-
16cc
=372
4.gg
8ee-
8ee-
8cc
=373
8cc
8g
8g
8e-
8e-
8c
=374
8c
8G
8G
8E-
8E-
8C
=375
4r
4r
4B
=376
4c
4r
4r
=377
4r
4g
4g
=378
4a-
4g
4r
=379
4r
4b
4b
=380
4dd
4cc
4r
=381
4r
4g
4g
=382
4a-
4g
4r
=383
4r
4B
4B
=384
4d
4c
4r
=385
4r
4B
4B
=386
4c
4r
4r
=387
4gg
4r
4r
=388
4cc
4r
4r
=389
2.r
==
*-
